packages/icons/svg/Outline/volume-up.svg

<svg width="24" height="24" viewBox="0 0 24 24" fill="none" xmlns="http://www.w3.org/2000/svg">
<g id="Icon/Outline/volume-up">
<path id="Mask" fill-rule="evenodd" clip-rule="evenodd" d="M13.5 18.1016L8.399 14.6036C8.232 14.4906 8.035 14.4286 7.833 14.4286H3.5V9.57161H7.833C8.035 9.57161 8.232 9.50961 8.399 9.39661L13.5 5.89861V18.1016ZM14.966 3.11561C14.637 2.94161 14.24 2.96461 13.935 3.17461L7.523 7.57161H2.5C1.948 7.57161 1.5 8.01861 1.5 8.57161V15.4286C1.5 15.9816 1.948 16.4286 2.5 16.4286H7.523L13.935 20.8256C14.104 20.9416 14.302 20.9996 14.5 20.9996C14.66 20.9996 14.82 20.9616 14.966 20.8846C15.294 20.7116 15.5 20.3716 15.5 19.9996V3.99961C15.5 3.62861 15.294 3.28861 14.966 3.11561ZM18.2793 8.37301C17.9323 7.94301 17.3033 7.87601 16.8733 8.22101C16.4433 8.56701 16.3743 9.19601 16.7203 9.62701C17.7563 10.913 17.7563 13.087 16.7203 14.373C16.3743 14.804 16.4433 15.433 16.8733 15.779C17.0583 15.928 17.2793 16 17.4993 16C17.7913 16 18.0813 15.872 18.2793 15.627C19.9153 13.593 19.9153 10.407 18.2793 8.37301ZM18.2297 5.36251C18.5817 4.93651 19.2127 4.87751 19.6377 5.22951C21.8057 7.02551 22.9997 9.43051 22.9997 12.0005C22.9997 14.5695 21.8057 16.9745 19.6377 18.7705C19.4507 18.9245 19.2247 19.0005 19.0007 19.0005C18.7127 19.0005 18.4277 18.8765 18.2297 18.6375C17.8777 18.2125 17.9367 17.5825 18.3627 17.2295C20.0627 15.8205 20.9997 13.9635 20.9997 12.0005C20.9997 10.0365 20.0627 8.17951 18.3627 6.77051C17.9367 6.41751 17.8777 5.78751 18.2297 5.36251Z" fill="#000000"/>
</g>
</svg>

<svg fill="none" height="24" viewBox="0 0 24 24" width="24" xmlns="http://www.w3.org/2000/svg"><path clip-rule="evenodd" d="m13.5 18.1016-5.10098-3.498c-.167-.113-.364-.175-.566-.175h-4.333v-4.85698h4.333c.202 0 .399-.062.566-.175l5.10098-3.498zm1.466-14.98595c-.329-.174-.726-.151-1.031.059l-6.412 4.397h-5.023c-.552 0-1 .447-1 1v6.85705c0 .553.448 1 1 1h5.023l6.412 4.397c.169.116.367.174.565.174.16 0 .32-.038.466-.115.328-.173.534-.513.534-.885v-16.00005c0-.371-.206-.711-.534-.884zm3.3133 5.2575c-.347-.43-.976-.497-1.406-.152-.43.346-.499.975-.153 1.406 1.036 1.28595 1.036 3.46005 0 4.74605-.346.431-.277 1.06.153 1.406.185.149.406.221.626.221.292 0 .582-.128.78-.373 1.636-2.034 1.636-5.22 0-7.25405zm-.0496-3.01053c.352-.426.983-.485 1.408-.133 2.168 1.796 3.362 4.201 3.362 6.77098 0 2.569-1.194 4.974-3.362 6.77-.187.154-.413.23-.637.23-.288 0-.573-.124-.771-.363-.352-.425-.293-1.055.133-1.408 1.7-1.409 2.637-3.266 2.637-5.229 0-1.964-.937-3.82098-2.637-5.22998-.426-.353-.485-.983-.133-1.408z" fill="#6b7280" fill-rule="evenodd"/></svg>
